<?xml version="1.0" encoding="UTF-8"?>
<map version="1.8" tiledversion="1.8.2" orientation="orthogonal" renderorder="right-down" width="100" height="100" tilewidth="32" tileheight="32" infinite="1" backgroundcolor="#48576a" nextlayerid="3" nextobjectid="39">
 <objectgroup id="2" name="Layout">
  <object id="25" name="Living Room" x="-640" y="-352" width="1376" height="736"/>
  <object id="26" x="-672" y="192" width="32" height="128"/>
  <object id="27" x="736" y="224" width="32" height="96"/>
  <object id="28" x="-384" y="384" width="160" height="32"/>
  <object id="29" name="TV" x="512" y="-320" width="32" height="320" rotation="330"/>
  <object id="31" name="Conversation Pit" x="-64" y="-224" width="480" height="480">
   <ellipse/>
  </object>
  <object id="33" name="Fireplace" x="128" y="-32" width="96" height="96">
   <ellipse/>
  </object>
  <object id="34" name="Cocktail Bar" x="-640" y="-352" width="128" height="448"/>
  <object id="35" name="Glass Doors" x="-416" y="-384" width="384" height="32"/>
  <object id="36" x="-448" y="-288" width="64" height="64">
   <ellipse/>
  </object>
  <object id="37" x="-448" y="-160" width="64" height="64">
   <ellipse/>
  </object>
  <object id="38" x="-448" y="-32" width="64" height="64">
   <ellipse/>
  </object>
 </objectgroup>
</map>
