<?xml version="1.0" encoding="UTF-8"?>
<map version="1.8" tiledversion="1.8.2" orientation="orthogonal" renderorder="right-down" width="100" height="100" tilewidth="32" tileheight="32" infinite="1" backgroundcolor="#48576a" nextlayerid="3" nextobjectid="33">
 <objectgroup id="2" name="Layout">
  <object id="23" name="Office" x="-960" y="-320" width="896" height="576"/>
  <object id="25" name="Desk" x="-640" y="-192" width="288" height="128"/>
  <object id="26" name="Chair" x="-934.781" y="-44.4897" width="96" height="96" rotation="300"/>
  <object id="27" name="Chair" x="-934.781" y="112.372" width="96" height="96" rotation="330"/>
  <object id="28" name="Desk Chair" x="-544" y="-288" width="96" height="64"/>
  <object id="29" name="Paper" x="-608" y="-192" width="32" height="32"/>
  <object id="30" name="Bookshelf" x="-64" y="-160" width="64" height="256"/>
  <object id="31" name="Door to Hall" x="-576" y="224" width="192" height="32"/>
  <object id="32" x="-480" y="320">
   <properties>
    <property name="Hall" type="file" value="../hall/hall.tmx"/>
   </properties>
   <point/>
  </object>
 </objectgroup>
</map>
