<?xml version="1.0" encoding="UTF-8"?>
<map version="1.8" tiledversion="1.8.2" orientation="orthogonal" renderorder="right-down" width="100" height="100" tilewidth="32" tileheight="32" infinite="1" backgroundcolor="#48576a" nextlayerid="3" nextobjectid="7">
 <tileset firstgid="1" name="cyberpunk" tilewidth="64" tileheight="64" tilecount="1" columns="0">
  <grid orientation="orthogonal" width="1" height="1"/>
  <tile id="0">
   <image width="64" height="64" source="00_dev/map_tiles/house_01.svg"/>
  </tile>
 </tileset>
 <objectgroup id="2" name="Labels">
  <object id="2" x="-864" y="-352">
   <properties>
    <property name="Meat_Home" type="file" value="rooms/meat_space/home/home.tmx"/>
   </properties>
   <point/>
  </object>
  <object id="3" name="Home" x="-992" y="-448" width="320" height="192"/>
  <object id="4" name="Shellspace" x="-768" y="-160" width="96" height="96"/>
  <object id="6" x="-736" y="-96">
   <properties>
    <property name="Shellspace Entrance" type="file" value="rooms/shellspace/shellspace.tmx"/>
   </properties>
   <point/>
  </object>
 </objectgroup>
</map>
