<?xml version="1.0" encoding="UTF-8"?>
<map version="1.8" tiledversion="1.8.2" orientation="orthogonal" renderorder="right-down" width="100" height="100" tilewidth="32" tileheight="32" infinite="1" backgroundcolor="#48576a" nextlayerid="3" nextobjectid="22">
 <objectgroup id="2" name="Layout">
  <object id="5" name="Bedroom" x="-1216" y="-352" width="1536" height="672"/>
  <object id="7" name="Desk" x="-1184" y="-288" width="160" height="352"/>
  <object id="9" name="Bed" x="-544" y="-288" width="800" height="320"/>
  <object id="12" name="Entertainment" x="96" y="96" width="160" height="192"/>
  <object id="14" name="Bookshelf" x="-416" y="192" width="448" height="96"/>
  <object id="16" x="-1088" y="-238">
   <properties>
    <property name="Desk" type="file" value="objects/desk.tmx"/>
   </properties>
   <point/>
  </object>
  <object id="17" x="-416" y="-231">
   <properties>
    <property name="Bed" type="file" value="objects/bed.tmx"/>
   </properties>
   <point/>
  </object>
  <object id="18" x="-276" y="236">
   <properties>
    <property name="Bookshelf" type="file" value="objects/bookshelf.tmx"/>
   </properties>
   <point/>
  </object>
  <object id="19" x="190" y="198">
   <properties>
    <property name="Entertainment" type="file" value="objects/entertainment.tmx"/>
   </properties>
   <point/>
  </object>
  <object id="20" name="Door to Hall" x="-960" y="320" width="320" height="32"/>
  <object id="21" x="-736" y="288">
   <properties>
    <property name="Hall" type="file" value="../hall/hall.tmx"/>
   </properties>
   <point/>
  </object>
 </objectgroup>
</map>
