<?xml version="1.0" encoding="UTF-8"?>
<map version="1.8" tiledversion="1.8.2" orientation="orthogonal" renderorder="right-down" width="100" height="100" tilewidth="32" tileheight="32" infinite="1" backgroundcolor="#48576a" nextlayerid="3" nextobjectid="36">
 <objectgroup id="2" name="Layout">
  <object id="33" name="Envelope" x="-672" y="-448" width="576" height="832"/>
  <object id="35" x="-608" y="-256" width="480" height="480">
   <text fontfamily="Sans Serif" pixelsize="13" wrap="1">In the envelope is a USB stick, if the player puts it in the computer, they enter Shellspace!</text>
  </object>
 </objectgroup>
</map>
