<?xml version="1.0" encoding="UTF-8"?>
<map version="1.8" tiledversion="1.8.2" orientation="orthogonal" renderorder="right-down" width="100" height="100" tilewidth="32" tileheight="32" infinite="1" backgroundcolor="#48576a" nextlayerid="3" nextobjectid="50">
 <objectgroup id="2" name="Layout">
  <object id="47" x="-960" y="-320" width="1600" height="960"/>
  <object id="48" name="To Living Room" x="-736" y="-352" width="192" height="32"/>
  <object id="49" x="-640" y="-384">
   <properties>
    <property name="Living Room" type="file" value="../livingroom/livingroom.tmx"/>
   </properties>
   <point/>
  </object>
 </objectgroup>
</map>
