<?xml version="1.0" encoding="UTF-8"?>
<map version="1.8" tiledversion="1.8.2" orientation="orthogonal" renderorder="right-down" width="100" height="100" tilewidth="32" tileheight="32" infinite="1" backgroundcolor="#48576a" nextlayerid="3" nextobjectid="26">
 <objectgroup id="2" name="Layout">
  <object id="20" name="Hall" x="-960" y="-320" width="2240" height="320"/>
  <object id="22" name="Door to Master" x="0" y="0" width="320" height="32"/>
  <object id="24" x="153" y="81">
   <properties>
    <property name="Master" type="file" value="../master/master.tmx"/>
   </properties>
   <point/>
  </object>
  <object id="25" name="Door to Bedroom" x="-896" y="-352" width="192" height="32"/>
 </objectgroup>
</map>
